X:1
T:Dotted Notes
T:Dotted Notes
T:from Mikrokosmos 1
T:Bartók Béla, Sz. 107
T:1) cf. No. 28
C:Bartók Béla, Sz. 107
%%score { 1 | 2 }
L:1/8
Q:1/4=112
M:4/4
K:C
V:1 treble nm="Piano" snm="Pno."
V:2 bass 
V:1
 (B6 A2 | G6 A2 | G4 F4 | E4) z4 | (B2 A2 G2 A2 | G4 F4 | E4) z4 | (F6 G2 | A2 G6 | F6 G2 | %10
 A2 B6) | (A4 G2 A2 | G4 F4 | E8) |] %14
V:2
 (B,6 A,2 | G,6 A,2 | G,4 F,4 | E,4) z4 | (B,2 A,2 G,2 A,2 | G,4 F,4 | E,4) z4 | (F,6 G,2 | %8
 A,2 G,6 | F,6 G,2 | A,2 B,6) | (A,4 G,2 A,2 | G,4 F,4 | E,8) |] %14

